bootstrap/envelope-open-heart.svg

<svg xmlns="http://www.w3.org/2000/svg" width="16" height="16" fill="currentColor" class="bi bi-envelope-open-heart" viewBox="0 0 16 16">
  <path fill-rule="evenodd" d="M8.47 1.318a1 1 0 0 0-.94 0l-6 3.2A1 1 0 0 0 1 5.4v.817l3.235 1.94a2.8 2.8 0 0 0-.233 1.027L1 7.384v5.733l3.479-2.087q.224.414.558.83l-4.002 2.402A1 1 0 0 0 2 15h12a1 1 0 0 0 .965-.738l-4.002-2.401q.334-.418.558-.831L15 13.117V7.383l-3.002 1.801a2.8 2.8 0 0 0-.233-1.026L15 6.217V5.4a1 1 0 0 0-.53-.882zM7.06.435a2 2 0 0 1 1.882 0l6 3.2A2 2 0 0 1 16 5.4V14a2 2 0 0 1-2 2H2a2 2 0 0 1-2-2V5.4a2 2 0 0 1 1.059-1.765zM8 7.993c1.664-1.711 5.825 1.283 0 5.132-5.825-3.85-1.664-6.843 0-5.132"/>
</svg>

<svg viewBox="0 0 16 16" xmlns="http://www.w3.org/2000/svg"><path fill-rule="evenodd" d="M8.47 1.31v0c-.3-.16-.65-.16-.94-.001l-6 3.2v0c-.33.17-.53.51-.53.88v.81l3.23 1.94v0c-.15.32-.23.67-.24 1.02L.98 7.35v5.73l3.47-2.09c.15.27.33.55.55.83l-4.002 2.4v0c.11.43.51.73.96.73h12v0c.45-.01.84-.31.96-.74l-4.01-2.401c.22-.28.4-.56.55-.84l3.47 2.08v-5.74l-3.01 1.8v0c-.02-.36-.1-.71-.24-1.03l3.23-1.95v-.82H14.9c-.01-.37-.21-.71-.53-.89l-6-3.2ZM7.06.42v0C7.64.1 8.35.1 8.94.42l6 3.2v0c.65.34 1.05 1.02 1.05 1.76v8.6 0c0 1.1-.9 2-2 2h-12v0c-1.11 0-2-.9-2-2v-8.6h0c-.01-.74.4-1.42 1.05-1.77l6-3.2ZM8 7.978c1.66-1.72 5.82 1.28 0 5.13 -5.83-3.85-1.67-6.85 0-5.14Z"/></svg>
